X:1
T:22
T:22
T:Ětudes enfantines op. 37
T:Henry Lemoine
C:Henry Lemoine
%%score { 1 | 2 }
L:1/8
Q:1/4=135
M:6/8
K:G
V:1 treble nm="Piano" snm="Pno."
V:2 bass 
V:1
"^Moderato"!p! (!5!b/!3!g/!4!a/!2!f/!3!g/!1!e/ b/g/a/f/g/e/ | %1
"_cresc." !5!e'/!3!c'/!4!d'/!2!b/!3!c'/!1!a/ e'/c'/d'/b/c'/a/) | %2
!mf! (!5!b/!3!g/!4!a/!2!f/!3!g/!1!e/ b/g/a/f/g/e/ | %3
 !5!f/!3!^d/!>(!!4!e/!2!^c/!3!d/!1!B/ f/d/e/c/d/!>)!B/) | %4
!p! (!5!b/!3!g/!4!a/!2!f/!3!g/!1!e/ b/g/a/f/g/e/ | %5
"_cresc." !5!e'/!3!c'/!4!d'/!2!b/!3!c'/!1!a/ e'/c'/d'/b/c'/a/) | %6
 (!5!a/!3!f/!4!g/!2!e/!3!f/!1!d/ a/f/g/e/f/d/ | !5!d'/!3!b/!4!c'/!2!a/!3!b/!1!g/ d'/b/c'/a/b/g/) | %8
!f!!f! (!5!e'/!3!c'/!4!d'/!2!b/!3!c'/!1!a/ !5!b/!3!g/!4!a/!2!f/!3!g/!1!e/ | %9
 !4!f/!2!d/!3!e/!1!c/!5!d/!3!B/ !4!c/!2!A/!3!B/!1!G/!4!A/!2!F/ |!f! .G) z z z2 (!>!!2!!4![Ac] | %11
 .[GB])!p! (!1!G,/!3!B,/!2!A,/!4!C/ !1!B,/!3!D/!2!C/!4!E/!1!D/!3!F/ | .G) z z z2 (!>!!2!!4![ac'] | %13
 .[gb])!p! (!1!G/!3!B/!2!A/!4!c/!<(! !1!B/!3!d/!2!c/!4!e/!1!d/!3!f/ | %14
 .g)!<)!!f! (!1!d/!5!b/!2!f/!4!a/ !3!g/!5!b/d/g/f/a/ | !3!g/!5!b/d/g/f/a/ !3!g/!5!b/d/g/f/a/ | %16
 .g) z z!ff! [ec'] z2 | !fermata![B^d]6 |!p! (!5!b/!3!g/!4!a/!2!f/!3!g/!1!e/ b/g/a/f/g/e/ | %19
"_cresc." !5!e'/!3!c'/!4!d'/!2!b/!3!c'/!1!a/ e'/c'/d'/b/c'/a/) | %20
!mf! (!5!b/!3!g/!4!a/!2!f/!3!g/!1!e/ b/g/a/f/g/e/ | %21
 !5!f/!3!^d/!>(!!4!e/!2!^c/!3!d/!1!B/ f/d/e/c/d/!>)!B/) | %22
!p! (!5!b/!3!g/!4!a/!2!f/!3!g/!1!e/ b/g/a/f/g/e/ | %23
"_cresc." !5!e'/!3!c'/!4!d'/!2!b/!3!c'/!1!a/ e'/c'/d'/b/c'/a/ | %24
 !5!b/!3!g/!4!a/!2!f/!3!g/!1!e/ !5!f/!3!^d/!4!e/!2!^c/!3!d/!1!B/ | %25
 .e)!f! (!1!B/!5!g/!2!^d/!4!f/ !3!e/!5!g/B/e/d/f/ | !3!e/!5!g/B/e/^d/f/ !3!e/!5!g/B/e/d/f/ | %27
 .e) z z!ff! .[gbe'] z2 |] %28
V:2
 .E,.[G,B,] z .E,.[G,B,] z | .E,.[A,C] z .E,.[A,C] z | .E,.[G,B,] z .E,.[G,B,] z | %3
 .B,,.[F,A,B,] z .B,,.[F,A,B,] z | .E,.[G,B,] z .E,.[G,B,] z | .E,.[A,C] z .E,.[A,C] z | %6
 .D,.[A,C] z .D,.[A,C] z | .G,,.[G,B,] z .B,,.[G,B,] z | !tenuto![C,E,A,]6 | !tenuto![D,A,C]6 | %10
 .[G,B,] (!5!G,,/!3!B,,/!4!A,,/!2!C,/ !3!B,,/!1!D,/!5!C,/!3!E,/!4!D,/!2!F,/ | %11
 .G,) z z z2 (!>!!5!!2!!1![D,A,C] | %12
 .!3!!1![G,B,]) (!5!G,/!3!B,/!4!A,/!2!C/ !3!B,/!1!D/!5!C/!3!E/!4!D/!2!F/ | %13
 .G) z z z2 (!>!!5!!2!!1![D,A,C] | .!3!!1![G,B,]) z .[D,A,C] .[G,B,] z .[D,A,C] | %15
 .[G,B,] z .[D,A,C] .[G,B,] z .[D,A,C] | .[G,B,] z z !2![A,CF] z2 |[K:treble] !fermata![B,FA]6 | %18
[K:bass] .E,.[G,B,] z .E,.[G,B,] z | .E,.[A,C] z .E,.[A,C] z | .E,.[G,B,] z .E,.[G,B,] z | %21
[K:bass] .B,,.[F,A,B,] z .B,,.[F,A,B,] z | .E,.[G,B,] z .E,.[G,B,] z | %23
 .!5!A,,.!2!!4![C,F,] z .A,,.[C,F,] z | .[B,,E,G,] z z .[B,,F,A,] z2 | %25
 .[E,G,] z[K:treble] .[B,FA] .[EG] z .[B,FA] | .[EG] z .[B,FA] .[EG] z .[B,FA] | %27
 .[EG] z z[K:bass] .[E,B,] z2 |] %28

